X: 56
T:Rights of Man
% Nottingham Music Database
S:KCC p27
M:4/4
L:1/8
R:Hornpipe
K:G
P:A
GA|"Em"BcAB GAFG|"Em"EFGA B2ef|"Em"gfed "G"edBd|"Am"cBAG "B7"A2GA|
"Em"BcAB GAFG|"Em"EFGA B2ef|"Am"gfed "B7"Bgf/2g3/2|"Em"e4 e2:|
P:B
ga|"Em"b^abg efga|"Em"b^abg e2fe|"D"d^cde fefg|"D"afdf a2gf|
"Em"eBeg "D"fdfa|"G"gfga b2ef|"Am"gfed "B7"Bgf/2g3/2|"Em"e4 e2:|<end>
<start>
